img/Email.svg

<svg width="163" height="163" viewBox="0 0 163 163" fill="none" xmlns="http://www.w3.org/2000/svg">
<circle cx="81.5" cy="81.5" r="81.5" fill="#FFEAC0"/>
<path d="M68.5 57.5H115.216C116.615 57.5 117.959 58.0633 118.95 59.0683C119.942 60.0735 120.5 61.4382 120.5 62.8626V91.5H68.5V57.5Z" stroke="#3F3D56"/>
<path d="M66.5 57.5C69.6763 57.5 72.7266 58.8104 74.9786 61.1495C77.2313 63.4893 78.5 66.6666 78.5 69.9834V85.6459C78.5 87.2045 77.9037 88.6956 76.848 89.7921C75.793 90.888 74.3661 91.5 72.8825 91.5H60.1175C58.6339 91.5 57.207 90.888 56.152 89.7921C55.0963 88.6956 54.5 87.2045 54.5 85.6459V69.9834C54.5 66.6666 55.7687 63.4893 58.0214 61.1495C60.2734 58.8104 63.3237 57.5 66.5 57.5Z" stroke="#777777"/>
<path opacity="0.2" d="M66.5 57.5C69.6763 57.5 72.7266 58.8104 74.9786 61.1495C77.2313 63.4893 78.5 66.6666 78.5 69.9834V85.6459C78.5 87.2045 77.9037 88.6956 76.848 89.7921C75.793 90.888 74.3661 91.5 72.8825 91.5H60.1175C58.6339 91.5 57.207 90.888 56.152 89.7921C55.0963 88.6956 54.5 87.2045 54.5 85.6459V69.9834C54.5 66.6666 55.7687 63.4893 58.0214 61.1495C60.2734 58.8104 63.3237 57.5 66.5 57.5Z" stroke="black"/>
<path d="M101 53H94.7503H91V60.6209V70H95.5391V60.6209H101V53Z" fill="#F3F3F3"/>
<path d="M94.3748 59.2242H93.8748V59.7242V67.5H91.5V59.7242V53.5H94.3748H99.5V59.2242H94.3748Z" stroke="#3F3D56"/>
<path d="M53.5821 63.6227L52.2427 74.6321L70.1481 76.8126L71.4875 65.8032L53.5821 63.6227Z" fill="url(#paint0_linear)"/>
<path d="M52.7967 73.9792L53.9863 64.2013L70.7883 66.2474L69.5987 76.0253L52.7967 73.9792Z" fill="#FEDE9C" stroke="#3F3D56" stroke-width="0.5"/>
<g opacity="0.6">
<path opacity="0.6" d="M54.2222 66.4293L56.4236 66.6974L56.6218 65.0678L54.4204 64.7997L54.2222 66.4293Z" fill="#FDB92D"/>
<path opacity="0.6" d="M55.6419 69.8186L64.093 70.8478L64.1573 70.3194L55.7062 69.2902L55.6419 69.8186Z" fill="#FDB92D"/>
<path opacity="0.6" d="M57.7919 71.2429L63.9541 71.9933L63.9969 71.6415L57.8347 70.8911L57.7919 71.2429Z" fill="#FDB92D"/>
</g>
<path d="M42.6492 88H81V93H38C38 91.6739 38.4898 90.4021 39.3617 89.4645C40.2336 88.5268 41.4162 88 42.6492 88Z" fill="#F2F2F2"/>
<path d="M60.8775 66.0444L59.5381 77.0538L77.4435 79.2343L78.7829 68.225L60.8775 66.0444Z" fill="url(#paint1_linear)"/>
<path d="M60.0926 76.4024L61.2822 66.6245L78.0842 68.6706L76.8946 78.4486L60.0926 76.4024Z" fill="#FEDE9C" stroke="#3F3D56" stroke-width="0.5"/>
<g opacity="0.6">
<path opacity="0.6" d="M61.5191 68.8528L63.7205 69.1208L63.9187 67.4913L61.7173 67.2232L61.5191 68.8528Z" fill="#FDB92D"/>
<path opacity="0.6" d="M62.9388 72.2422L71.3899 73.2714L71.4542 72.743L63.003 71.7138L62.9388 72.2422Z" fill="#FDB92D"/>
<path opacity="0.6" d="M65.0859 73.6662L71.248 74.4166L71.2908 74.0649L65.1287 73.3144L65.0859 73.6662Z" fill="#FDB92D"/>
</g>
<path d="M45.3764 67.0793L43.5608 82.0026L67.8307 84.9582L69.6463 70.0349L45.3764 67.0793Z" fill="url(#paint2_linear)"/>
<path d="M44.2139 81.1946L45.8481 67.7627L68.7994 70.5577L67.1652 83.9897L44.2139 81.1946Z" fill="#FEDE9C" stroke="#3F3D56" stroke-width="0.5"/>
<g opacity="0.6">
<path opacity="0.6" d="M46.245 70.8825L49.2285 71.2458L49.4972 69.0376L46.5137 68.6743L46.245 70.8825Z" fill="#FDB92D"/>
<path opacity="0.6" d="M48.1674 75.4784L59.6235 76.8735L59.7107 76.1571L48.2545 74.762L48.1674 75.4784Z" fill="#FDB92D"/>
<path opacity="0.6" d="M51.0825 77.4079L59.436 78.4252L59.4942 77.9471L51.1406 76.9298L51.0825 77.4079Z" fill="#FDB92D"/>
</g>
<path d="M55.2658 70.3618L53.4502 85.285L77.7201 88.2406L79.5357 73.3173L55.2658 70.3618Z" fill="url(#paint3_linear)"/>
<path d="M54.1021 84.4797L55.7363 71.0477L78.6876 73.8427L77.0534 87.2747L54.1021 84.4797Z" fill="#FEDE9C" stroke="#3F3D56" stroke-width="0.5"/>
<g opacity="0.6">
<path opacity="0.6" d="M56.1344 74.1674L59.1179 74.5308L59.3866 72.3226L56.4031 71.9592L56.1344 74.1674Z" fill="#FDB92D"/>
<path opacity="0.6" d="M58.0565 78.7632L69.5127 80.1583L69.5999 79.4419L58.1437 78.0468L58.0565 78.7632Z" fill="#FDB92D"/>
<path opacity="0.6" d="M60.9714 80.6928L69.325 81.7101L69.3831 81.232L61.0296 80.2147L60.9714 80.6928Z" fill="#FDB92D"/>
</g>
<path opacity="0.2" d="M65.9687 57C64.2639 56.9986 62.5756 57.337 61 57.9959C61.6137 57.9068 62.2329 57.8618 62.8529 57.8612V57.8612C64.5642 57.8612 66.2588 58.2025 67.8398 58.8656C69.4209 59.5287 70.8574 60.5006 72.0675 61.7259C73.2776 62.9511 74.2374 64.4057 74.8923 66.0065C75.5472 67.6074 75.8843 69.3232 75.8843 71.056V92H79V70.1948C79 66.6953 77.6271 63.3392 75.1832 60.8647C72.7394 58.3902 69.4248 57 65.9687 57Z" fill="black"/>
<path d="M42.433 87.5H78.5V91.5H38.5244C38.6246 90.4749 39.0306 89.5202 39.6725 88.7962C40.416 87.9576 41.4106 87.5 42.433 87.5Z" stroke="#3F3D56"/>
<path opacity="0.2" d="M42.433 87.25H78.75V91.75H38.2558C38.3104 90.5729 38.7491 89.4609 39.4855 88.6303C40.2729 87.7422 41.334 87.25 42.433 87.25Z" stroke="#3F3D56" stroke-width="0.5"/>
<path d="M112.488 61.7786L112 62L112.056 61.9068L112.013 61.9191L112.074 61.8778L118.65 51L122.013 53.6649L124.898 56.1465L124.07 56.5221L125 58.0478L112.488 61.7786Z" fill="#F2F2F2"/>
<path d="M121.574 54L124 56.0412L113 61L118.854 54.1962L121.574 54Z" fill="#FEDE9C"/>
<path d="M120.61 54.1494L113.994 59.8188L118.425 52.3763L120.61 54.1494Z" stroke="#3F3D56" stroke-width="0.5"/>
<path d="M122.12 55.3473L123.609 57.6764L114.536 60.2963L122.12 55.3473Z" stroke="#3F3D56" stroke-width="0.5"/>
<path d="M53.2818 60.8934L54 61L53.8888 60.8991H53.9504L53.8543 60.8675L40.8029 49L37.6355 53.7934L35 58.166L36.2201 58.3476L35.6792 60.7162L53.2818 60.8934Z" fill="#F2F2F2"/>
<path d="M38.4554 53.7682L36 57.4589L54 60L42.4067 53L38.4554 53.7682Z" fill="#FEDE9C"/>
<path d="M38.4043 53.8215L41.0882 50.3505L52.5153 59.1699L38.4043 53.8215Z" stroke="#3F3D56" stroke-width="0.5"/>
<path d="M88 141L88 93L82 93L82 141L88 141Z" fill="#F2F2F2"/>
<path d="M38.311 55.319L52.2818 59.7208L37.3158 59.4666L38.311 55.319Z" stroke="#3F3D56" stroke-width="0.5"/>
<path d="M79.5 92.5H87.5V138.5H79.5V92.5Z" stroke="#3F3D56"/>
<defs>
<linearGradient id="paint0_linear" x1="-3695.44" y1="6554.33" x2="-3528.16" y2="5180.71" gradientUnits="userSpaceOnUse">
<stop stop-color="#808080" stop-opacity="0.25"/>
<stop offset="0.54" stop-color="#808080" stop-opacity="0.12"/>
<stop offset="1" stop-color="#808080" stop-opacity="0.1"/>
</linearGradient>
<linearGradient id="paint1_linear" x1="-3152.39" y1="6814.33" x2="-2985.11" y2="5440.71" gradientUnits="userSpaceOnUse">
<stop stop-color="#808080" stop-opacity="0.25"/>
<stop offset="0.54" stop-color="#808080" stop-opacity="0.12"/>
<stop offset="1" stop-color="#808080" stop-opacity="0.1"/>
</linearGradient>
<linearGradient id="paint2_linear" x1="-5656.2" y1="10214.6" x2="-5348.86" y2="7690.86" gradientUnits="userSpaceOnUse">
<stop stop-color="#808080" stop-opacity="0.25"/>
<stop offset="0.54" stop-color="#808080" stop-opacity="0.12"/>
<stop offset="1" stop-color="#808080" stop-opacity="0.1"/>
</linearGradient>
<linearGradient id="paint3_linear" x1="-4654.75" y1="10691.6" x2="-4347.4" y2="8167.77" gradientUnits="userSpaceOnUse">
<stop stop-color="#808080" stop-opacity="0.25"/>
<stop offset="0.54" stop-color="#808080" stop-opacity="0.12"/>
<stop offset="1" stop-color="#808080" stop-opacity="0.1"/>
</linearGradient>
</defs>
</svg>

<svg width="163" height="163" fill="none" xmlns="http://www.w3.org/2000/svg"><circle cx="81.5" cy="81.5" r="81.5" fill="#FFEAC0"/><path d="M68.5 57.5h46.716c1.399 0 2.743.563 3.734 1.568a5.402 5.402 0 011.55 3.795V91.5h-52v-34z" stroke="#3F3D56"/><path d="M66.5 57.5c3.176 0 6.227 1.31 8.479 3.65 2.252 2.34 3.521 5.517 3.521 8.833v15.663a5.98 5.98 0 01-1.652 4.146 5.504 5.504 0 01-3.966 1.708H60.117a5.504 5.504 0 01-3.965-1.708 5.98 5.98 0 01-1.652-4.146V69.983c0-3.316 1.269-6.494 3.521-8.834C60.273 58.81 63.324 57.5 66.5 57.5z" stroke="#777"/><path opacity=".2" d="M66.5 57.5c3.176 0 6.227 1.31 8.479 3.65 2.252 2.34 3.521 5.517 3.521 8.833v15.663a5.98 5.98 0 01-1.652 4.146 5.504 5.504 0 01-3.966 1.708H60.117a5.504 5.504 0 01-3.965-1.708 5.98 5.98 0 01-1.652-4.146V69.983c0-3.316 1.269-6.494 3.521-8.834C60.273 58.81 63.324 57.5 66.5 57.5z" stroke="#000"/><path d="M101 53H91v17h4.54v-9.38H101V53z" fill="#F3F3F3"/><path d="M94.375 59.224h-.5V67.5H91.5v-14h8v5.724h-5.125z" stroke="#3F3D56"/><path d="M53.582 63.623l-1.34 11.01 17.906 2.18 1.34-11.01-17.906-2.18z" fill="url(#paint0_linear)"/><path d="M52.797 73.98l1.19-9.779 16.801 2.046-1.19 9.778-16.801-2.046z" fill="#FEDE9C" stroke="#3F3D56" stroke-width=".5"/><path opacity=".6" d="M54.222 66.43l2.202.267.198-1.63-2.202-.267-.198 1.63zm1.42 3.389l8.451 1.029.064-.529-8.45-1.029-.065.529zm2.15 1.424l6.162.75.043-.352-6.162-.75-.043.352z" fill="#FDB92D"/><path d="M42.65 88H81v5H38c0-1.326.49-2.598 1.362-3.535.872-.938 2.054-1.465 3.287-1.465z" fill="#F2F2F2"/><path d="M60.877 66.044l-1.339 11.01 17.906 2.18 1.339-11.009-17.906-2.18z" fill="url(#paint1_linear)"/><path d="M60.093 76.402l1.19-9.778 16.801 2.047-1.19 9.778-16.801-2.047z" fill="#FEDE9C" stroke="#3F3D56" stroke-width=".5"/><path opacity=".6" d="M61.52 68.853l2.2.268.199-1.63-2.202-.268-.198 1.63zm1.419 3.389l8.45 1.03.065-.529-8.451-1.03-.064.53zm2.147 1.424l6.162.75.043-.351-6.162-.75-.043.351z" fill="#FDB92D"/><path d="M45.376 67.08l-1.815 14.923 24.27 2.955 1.815-14.923-24.27-2.956z" fill="url(#paint2_linear)"/><path d="M44.214 81.195l1.634-13.432L68.8 70.558 67.165 83.99l-22.951-2.795z" fill="#FEDE9C" stroke="#3F3D56" stroke-width=".5"/><path opacity=".6" d="M46.245 70.882l2.983.364.27-2.208-2.984-.364-.269 2.208zm1.922 4.596l11.456 1.396.088-.717-11.456-1.395-.088.716zm2.916 1.93l8.353 1.017.058-.478-8.353-1.017-.058.478z" fill="#FDB92D"/><path d="M55.266 70.362L53.45 85.285l24.27 2.956 1.816-14.924-24.27-2.955z" fill="url(#paint3_linear)"/><path d="M54.102 84.48l1.634-13.432 22.952 2.795-1.635 13.432-22.95-2.795z" fill="#FEDE9C" stroke="#3F3D56" stroke-width=".5"/><path opacity=".6" d="M56.134 74.167l2.984.364.269-2.208-2.984-.364-.269 2.208zm1.922 4.596l11.457 1.395.087-.716-11.456-1.395-.087.716zm2.915 1.93l8.354 1.017.058-.478-8.353-1.017-.059.478z" fill="#FDB92D"/><path opacity=".2" d="M65.969 57a12.849 12.849 0 00-4.969.996 12.891 12.891 0 016.84.87 13.02 13.02 0 014.227 2.86 13.206 13.206 0 012.825 4.28c.655 1.601.992 3.317.992 5.05V92H79V70.195c0-3.5-1.373-6.856-3.817-9.33A12.95 12.95 0 0065.97 57z" fill="#000"/><path d="M42.433 87.5H78.5v4H38.524c.1-1.025.507-1.98 1.148-2.704.744-.838 1.739-1.296 2.761-1.296z" stroke="#3F3D56"/><path opacity=".2" d="M42.433 87.25H78.75v4.5H38.256c.054-1.177.493-2.29 1.23-3.12.787-.888 1.848-1.38 2.947-1.38z" stroke="#3F3D56" stroke-width=".5"/><path d="M112.488 61.779L112 62l.056-.093-.043.012.061-.041L118.65 51l3.363 2.665 2.885 2.482-.828.375.93 1.526-12.512 3.73z" fill="#F2F2F2"/><path d="M121.574 54L124 56.041 113 61l5.854-6.804 2.72-.196z" fill="#FEDE9C"/><path d="M120.61 54.15l-6.616 5.669 4.431-7.443 2.185 1.773zm1.51 1.197l1.489 2.33-9.073 2.62 7.584-4.95z" stroke="#3F3D56" stroke-width=".5"/><path d="M53.282 60.893L54 61l-.111-.1h.061l-.096-.032L40.803 49l-3.167 4.793L35 58.166l1.22.182-.54 2.368 17.602.177z" fill="#F2F2F2"/><path d="M38.455 53.768L36 57.458 54 60l-11.593-7-3.952.768z" fill="#FEDE9C"/><path d="M38.404 53.822l2.684-3.472 11.427 8.82-14.11-5.349z" stroke="#3F3D56" stroke-width=".5"/><path d="M88 141V93h-6v48h6z" fill="#F2F2F2"/><path d="M38.311 55.319l13.97 4.402-14.965-.254.995-4.148z" stroke="#3F3D56" stroke-width=".5"/><path d="M79.5 92.5h8v46h-8v-46z" stroke="#3F3D56"/><defs><linearGradient id="paint0_linear" x1="-3695.44" y1="6554.33" x2="-3528.16" y2="5180.71" gradientUnits="userSpaceOnUse"><stop stop-color="gray" stop-opacity=".25"/><stop offset=".54" stop-color="gray" stop-opacity=".12"/><stop offset="1" stop-color="gray" stop-opacity=".1"/></linearGradient><linearGradient id="paint1_linear" x1="-3152.39" y1="6814.33" x2="-2985.11" y2="5440.71" gradientUnits="userSpaceOnUse"><stop stop-color="gray" stop-opacity=".25"/><stop offset=".54" stop-color="gray" stop-opacity=".12"/><stop offset="1" stop-color="gray" stop-opacity=".1"/></linearGradient><linearGradient id="paint2_linear" x1="-5656.2" y1="10214.6" x2="-5348.86" y2="7690.86" gradientUnits="userSpaceOnUse"><stop stop-color="gray" stop-opacity=".25"/><stop offset=".54" stop-color="gray" stop-opacity=".12"/><stop offset="1" stop-color="gray" stop-opacity=".1"/></linearGradient><linearGradient id="paint3_linear" x1="-4654.75" y1="10691.6" x2="-4347.4" y2="8167.77" gradientUnits="userSpaceOnUse"><stop stop-color="gray" stop-opacity=".25"/><stop offset=".54" stop-color="gray" stop-opacity=".12"/><stop offset="1" stop-color="gray" stop-opacity=".1"/></linearGradient></defs></svg>
